src/images/skill/bushcraft/willow.svg

<svg xmlns="http://www.w3.org/2000/svg" viewBox="0 0 512 512" style="height: 512px; width: 512px;"><g class="" transform="translate(0,0)" style=""><path d="M261.1 24.77c-57.3-.46-64.8 64.29-64.8 64.29 21.2-1.33 21.7-42.45 48.4-39.88-21.8 28.91-11.1 71.72-11.1 71.72l12 5.3 16.7-5.6s23.2-30.71 16.7-63.98c28.1 26.17 1.5 49.68 35.5 81.38 0 0 17-35.1 5-66.84 29.7 27.34 18.5 73.64 61.1 83.34-32.3-35.6-1.5-112.71-107.3-128.73-4.3-.65-8.3-.97-12.2-1zM158.6 88.4c-133.51-.41-98.66 82.7-104.69 153.1 33.27-25.6 5.46-89 36.44-112.8-11.95 21 3.71 72.3 3.71 72.3C128 173.4 83.24 106.8 172 88.7c-4.7-.19-9.1-.29-13.4-.3zm42.8 49.5c-38.6 0-71.1 22-70.1 57.9-60.7 23.8-34.4 141.8-34.4 217.7 40.8-40.7 1.41-134.7 33.6-166.9L143 352.7c32.2-35.7-1.8-109.8 29.1-144l7.9 75c24.3-29-1.4-113.9 54.5-140.5-11.1-3.6-22.4-5.4-33.1-5.3zm74.5 4.3c-37.7-1.2-70.4 44.9-38.9 97 0 0 .7-38.9 19.3-54 17.4 21.4-11.5 76.5 20.3 115.4l15-94.9c31.7 35.4-6.9 103.4 21.5 135l20.2-78c27.9 45.8-6.1 118.1 31.6 156-1.6-31.6 54.8-165.7-25.8-205.2-12.7-50.4-39-70.6-63.2-71.3zm107.6 28.9c-22.5-.1-39.8 4-39.8 4 72.2 3.5 69.2 65.4 69.2 65.4 62.4 20.7 43.4 105.5 56 126.8 21.9-81.9-21.1-147.2-21.1-147.2s25 11.2 35.7 54.4c4.5-87.8-57.1-103.2-100-103.4zM215.6 256c1.5 15.5-12.9 37.1-12.9 37.1s4.8 20.2 47.8 11.2c0 0-10.3-7.6-13.2-28.2-13.8-5.8-21.7-20.1-21.7-20.1zm-32.8 62.3s-3.3 30.8 4.2 63.7c8.1 35.5 18.5-2.6 17.3-32.8 31.5 10.6-4.3 43.2 34.2 72.2l3.9-56.8c33.3 9.9-2.3 64.4 25.4 75.3C288.3 418 291.9 379 271 357c-27.8-29.3-59.7-8.7-88.2-38.7zM296.5 360c15 34 18.8 97-44.7 125.1h134s23-49.5 8.5-79.9l-18.4 41.5c-52.7-13.4-47.2-47-79.4-86.7z" fill="#fff" fill-opacity="1"></path></g></svg>

<svg xmlns="http://www.w3.org/2000/svg" viewBox="0 0 512 512" style="height: 512px; width: 512px;"><g class="" transform="translate(0,0)" style=""><g><path d="M261.1 24.77C203.8 24.31 196.3 89.06 196.3 89.06C217.5 87.73 218 46.61 244.7 49.18C222.9 78.09 233.6 120.9 233.6 120.9L245.6 126.2L262.3 120.6C262.3 120.6 285.5 89.89 279 56.62C307.1 82.79 280.5 106.3 314.5 138C314.5 138 331.5 102.9 319.5 71.16C349.2 98.5 338 144.8 380.6 154.5C348.3 118.9 379.1 41.79 273.3 25.77C269 25.12 265 24.8 261.1 24.77Z" class="" fill="#a8c585" fill-opacity="1"></path><path d="M158.6 88.4C25.09 87.99 59.94 171.1 53.91 241.5C87.18 215.9 59.37 152.5 90.35 128.7C78.4 149.7 94.06 201 94.06 201C128 173.4 83.24 106.8 172 88.7C167.3 88.51 162.9 88.41 158.6 88.4Z" class="" fill="#a8c585" fill-opacity="1"></path><path d="M201.4 137.9C162.8 137.9 130.3 159.9 131.3 195.8C70.6 219.6 96.9 337.6 96.9 413.5C137.7 372.8 98.31 278.8 130.5 246.6L143 352.7C175.2 317 141.2 242.9 172.1 208.7L180 283.7C204.3 254.7 178.6 169.8 234.5 143.2C223.4 139.6 212.1 137.8 201.4 137.9Z" class="" fill="#a8c585" fill-opacity="1"></path><path d="M275.9 142.2C238.2 141 205.5 187.1 237 239.2C237 239.2 237.7 200.3 256.3 185.2C273.7 206.6 244.8 261.7 276.6 300.6L291.6 205.7C323.3 241.1 284.7 309.1 313.1 340.7L333.3 262.7C361.2 308.5 327.2 380.8 364.9 418.7C363.3 387.1 419.7 253 339.1 213.5C326.4 163.1 300.1 142.9 275.9 142.2Z" class="" fill="#a8c585" fill-opacity="1"></path><path d="M383.5 171.1C361 171 343.7 175.1 343.7 175.1C415.9 178.6 412.9 240.5 412.9 240.5C475.3 261.2 456.3 346 468.9 367.3C490.8 285.4 447.8 220.1 447.8 220.1C447.8 220.1 472.8 231.3 483.5 274.5C488 186.7 426.4 171.3 383.5 171.1Z" class="" fill="#a8c585" fill-opacity="1"></path><path d="M215.6 256C217.1 271.5 202.7 293.1 202.7 293.1C202.7 293.1 207.5 313.3 250.5 304.3C250.5 304.3 240.2 296.7 237.3 276.1C223.5 270.3 215.6 256 215.6 256Z" class="" fill="#a8c585" fill-opacity="1"></path><path d="M182.8 318.3C182.8 318.3 179.5 349.1 187 382C195.1 417.5 205.5 379.4 204.3 349.2C235.8 359.8 200 392.4 238.5 421.4L242.4 364.6C275.7 374.5 240.1 429 267.8 439.9C288.3 418 291.9 379 271 357C243.2 327.7 211.3 348.3 182.8 318.3Z" class="selected" fill="#a8c585" fill-opacity="1"></path><path d="M296.5 360C311.5 394 315.3 457 251.8 485.1L385.8 485.1C385.8 485.1 408.8 435.6 394.3 405.2L375.9 446.7C323.2 433.3 328.7 399.7 296.5 360Z" class="" fill="#3e372d" fill-opacity="1"></path></g></g></svg>
